X: 15611
T: Goat's Butter, The
R: polka
M: 2/4
K: Gmajor
F/G/A|:BG A/c/e|dB Ac|dB G/A/B|Bd GA|
Bd A/c/e|dB Ac|dG BA|1 B/A/G F/G/A:|2 B/A/G G2||
|:dg ea/g/|fe e/f/e|ed c/d/f|ed Bd|
cg ga/g/|fe f/g/e|dB BA|1 B/A/G G2:|2 B/A/G F/G/A||

